home.svg

<svg xmlns="http://www.w3.org/2000/svg" width="142" height="142" viewBox="0 0 142 142"><defs><clipPath id="qgvoa"><path d="M31 115.46V27h80.462v88.46z"/></clipPath></defs><g><g><g><path fill="#fbfbfb" d="M71 0c39.212 0 71 31.788 71 71s-31.788 71-71 71S0 110.212 0 71 31.788 0 71 0z"/></g><g><g><g/><g clip-path="url(#qgvoa)"><path d="M78.319 113.41h-14.12V93.521a3.466 3.466 0 0 1 3.462-3.462h7.196a3.466 3.466 0 0 1 3.462 3.462zm-3.462-25.351h-7.196a5.469 5.469 0 0 0-5.462 5.462v19.939h18.12V93.521a5.469 5.469 0 0 0-5.462-5.462"/></g><g clip-path="url(#qgvoa)"><path d="M88.371 76.765a5.468 5.468 0 0 0-5.462 5.461v2.986a1 1 0 0 0 1 1h9.125a1 1 0 0 0 1-1v-2.986a5.468 5.468 0 0 0-5.462-5.461zm3.663 5.461v1.986h-7.125v-1.986a3.466 3.466 0 0 1 3.462-3.461h.201a3.466 3.466 0 0 1 3.462 3.461"/></g><g clip-path="url(#qgvoa)"><path d="M56.594 84.212H49.47v-1.986a3.465 3.465 0 0 1 3.462-3.461h.201a3.465 3.465 0 0 1 3.461 3.461zm-3.461-7.447h-.201a5.468 5.468 0 0 0-5.462 5.461v2.986a1 1 0 0 0 1 1h9.124a1 1 0 0 0 1-1v-2.986a5.467 5.467 0 0 0-5.461-5.461"/></g><g clip-path="url(#qgvoa)"><path d="M111.324 72.483L98.649 50.921a1 1 0 0 0-.862-.493H95.51l.004.152h.993a1 1 0 0 1 1 1c0 .433-.012.863-.032 1.291l11.239 19.119h-7.552a1 1 0 0 0-1 1v38.301c0 1.7-1.786 2.101-2.177 2.169H44.951c-.985 0-1.705-.231-2.141-.685-.54-.563-.512-1.352-.51-1.415V72.99a1 1 0 0 0-1-1h-7.528l11.812-19.562h.276c-.009-.282-.021-.564-.021-.848a1 1 0 0 1 1-1h.992l.004-.152h-2.816a1 1 0 0 0-.856.484l-13.02 21.561A1.001 1.001 0 0 0 32 73.99h8.3l.002 37.304c-.011.165-.076 1.646 1.034 2.833.828.884 2.044 1.333 3.615 1.333h53.111a.976.976 0 0 0 .132-.009c1.372-.183 3.968-1.288 3.968-4.16V73.99h8.3a1 1 0 0 0 .862-1.507"/></g><g clip-path="url(#qgvoa)"><path d="M71.673 76.019c-12.815 0-23.301-10.425-23.814-23.438h47.628c-.513 13.013-10.999 23.438-23.814 23.438m22.862-23.601H48.811a1 1 0 0 1-1-1c0-.281.011-.559.021-.837h-.993a1 1 0 0 0-1 1c0 .284.012.566.021.848.44 14.186 11.846 25.59 25.813 25.59 13.822 0 25.142-11.167 25.802-25.148.02-.427.032-.858.032-1.29a1 1 0 0 0-1-1h-.993c.01.278.021.556.021.837a1 1 0 0 1-1 1"/></g><g clip-path="url(#qgvoa)"><path d="M71.673 29c11.729 0 21.329 9.519 21.841 21.418H49.832C50.344 38.519 59.944 29 71.673 29M47.811 51.418a1 1 0 0 0 1 1h45.724a1 1 0 0 0 1-1c0-.281-.011-.559-.021-.838-.001-.05-.001-.101-.003-.151C95.001 37.422 84.507 27 71.673 27c-12.834 0-23.328 10.422-23.838 23.429-.002.05-.002.101-.003.151-.01.279-.021.557-.021.838"/></g><g clip-path="url(#qgvoa)"><path d="M76.901 66.444c0 .582-.163 1.053-.489 1.414-.326.361-.78.541-1.362.541-.558 0-1-.18-1.326-.541-.326-.361-.489-.832-.489-1.414 0-.558.163-1.013.489-1.362.326-.349.768-.523 1.326-.523.582 0 1.036.174 1.362.523.326.349.489.804.489 1.362m-4.224-2.268c-.652.605-.978 1.361-.978 2.268 0 .931.326 1.699.978 2.304.651.606 1.442.908 2.373.908.954 0 1.747-.302 2.374-.908.628-.605.943-1.373.943-2.304 0-.907-.315-1.663-.943-2.268-.627-.605-1.42-.908-2.374-.908-.931 0-1.722.303-2.373.908"/></g><g clip-path="url(#qgvoa)"><path d="M65.032 57.246c.326-.36.779-.541 1.362-.541.558 0 1.006.181 1.343.541.338.362.506.82.506 1.379 0 .582-.168 1.047-.506 1.396-.337.349-.785.524-1.343.524-.583 0-1.036-.175-1.362-.524-.326-.349-.488-.814-.488-1.396 0-.559.162-1.017.488-1.379m1.362 4.556c.953 0 1.739-.297 2.356-.89.616-.594.925-1.356.925-2.287 0-.931-.309-1.699-.925-2.304-.617-.605-1.403-.908-2.356-.908-.932 0-1.728.303-2.392.908-.663.605-.994 1.373-.994 2.304 0 .931.331 1.693.994 2.287.664.593 1.46.89 2.392.89"/></g><g clip-path="url(#qgvoa)"><path d="M64.822 69.133c0 .209.081.361.245.453a.641.641 0 0 0 .419.141c.279 0 .488-.106.628-.315l9.74-12.846a.742.742 0 0 0 .174-.489.59.59 0 0 0-.192-.454.682.682 0 0 0-.471-.174c-.233 0-.444.104-.629.313L65.031 68.61a.793.793 0 0 0-.209.523"/></g></g></g></g></g></svg>

<?xml version="1.0" encoding="UTF-8" standalone="no"?>
<!DOCTYPE svg PUBLIC "-//W3C//DTD SVG 1.1//EN" "http://www.w3.org/Graphics/SVG/1.1/DTD/svg11.dtd">
<svg width="100%" height="100%" viewBox="0 0 142 142" version="1.1" xmlns="http://www.w3.org/2000/svg" xmlns:xlink="http://www.w3.org/1999/xlink" xml:space="preserve" xmlns:serif="http://www.serif.com/" style="fill-rule:evenodd;clip-rule:evenodd;stroke-linejoin:round;stroke-miterlimit:2;">
    <g>
        <g>
            <g>
                <g>
                    <g>
                        <path d="M78.319,113.41L64.199,113.41L64.199,93.521C64.201,91.623 65.763,90.061 67.661,90.059L74.857,90.059C76.755,90.061 78.317,91.623 78.319,93.521L78.319,113.41ZM74.857,88.059L67.661,88.059C64.666,88.063 62.203,90.526 62.199,93.521L62.199,113.46L80.319,113.46L80.319,93.521C80.315,90.526 77.852,88.063 74.857,88.059" style="fill-rule:nonzero;"/>
                    </g>
                    <g>
                        <path d="M88.371,76.765C85.376,76.768 82.913,79.231 82.909,82.226L82.909,85.212C82.909,85.761 83.36,86.212 83.909,86.212L93.034,86.212C93.583,86.212 94.034,85.761 94.034,85.212L94.034,82.226C94.03,79.231 91.567,76.768 88.572,76.765L88.371,76.765ZM92.034,82.226L92.034,84.212L84.909,84.212L84.909,82.226C84.912,80.328 86.473,78.767 88.371,78.765L88.572,78.765C90.47,78.767 92.031,80.328 92.034,82.226" style="fill-rule:nonzero;"/>
                    </g>
                    <g>
                        <path d="M56.594,84.212L49.47,84.212L49.47,82.226C49.472,80.328 51.034,78.767 52.932,78.765L53.133,78.765C55.031,78.767 56.592,80.328 56.594,82.226L56.594,84.212ZM53.133,76.765L52.932,76.765C49.937,76.768 47.474,79.231 47.47,82.226L47.47,85.212C47.47,85.761 47.921,86.212 48.47,86.212L57.594,86.212C58.143,86.212 58.594,85.761 58.594,85.212L58.594,82.226C58.591,79.231 56.128,76.768 53.133,76.765" style="fill-rule:nonzero;"/>
                    </g>
                    <g>
                        <clipPath id="_clip1">
                            <rect x="31" y="27" width="80.462" height="88.46"/>
                        </clipPath>
                        <g clip-path="url(#_clip1)">
                            <path d="M111.324,72.483L98.649,50.921C98.47,50.616 98.141,50.428 97.787,50.428L95.51,50.428L95.514,50.58L96.507,50.58C97.056,50.58 97.507,51.031 97.507,51.58C97.507,52.013 97.495,52.443 97.475,52.871L108.714,71.99L101.162,71.99C100.613,71.99 100.162,72.441 100.162,72.99L100.162,111.291C100.162,112.991 98.376,113.392 97.985,113.46L44.951,113.46C43.966,113.46 43.246,113.229 42.81,112.775C42.27,112.212 42.298,111.423 42.3,111.36L42.3,72.99C42.3,72.441 41.849,71.99 41.3,71.99L33.772,71.99L45.584,52.428L45.86,52.428C45.851,52.146 45.839,51.864 45.839,51.58C45.839,51.031 46.29,50.58 46.839,50.58L47.831,50.58L47.835,50.428L45.019,50.428C44.669,50.428 44.344,50.612 44.163,50.912L31.143,72.473C31.049,72.629 31,72.807 31,72.989C31,73.538 31.451,73.99 32,73.99L40.3,73.99L40.302,111.294C40.291,111.459 40.226,112.94 41.336,114.127C42.164,115.011 43.38,115.46 44.951,115.46L98.062,115.46C98.106,115.46 98.15,115.457 98.194,115.451C99.566,115.268 102.162,114.163 102.162,111.291L102.162,73.99L110.462,73.99C111.011,73.99 111.462,73.539 111.462,72.99C111.462,72.812 111.414,72.637 111.324,72.483" style="fill-rule:nonzero;"/>
                        </g>
                    </g>
                    <g>
                        <path d="M71.673,76.019C58.858,76.019 48.372,65.594 47.859,52.581L95.487,52.581C94.974,65.594 84.488,76.019 71.673,76.019M94.535,52.418L48.811,52.418C48.262,52.418 47.811,51.967 47.811,51.418C47.811,51.137 47.822,50.859 47.832,50.581L46.839,50.581C46.29,50.581 45.839,51.032 45.839,51.581C45.839,51.865 45.851,52.147 45.86,52.429C46.3,66.615 57.706,78.019 71.673,78.019C85.495,78.019 96.815,66.852 97.475,52.871C97.495,52.444 97.507,52.013 97.507,51.581C97.507,51.032 97.056,50.581 96.507,50.581L95.514,50.581C95.524,50.859 95.535,51.137 95.535,51.418C95.535,51.967 95.084,52.418 94.535,52.418" style="fill-rule:nonzero;"/>
                    </g>
                    <g>
                        <path d="M71.673,29C83.402,29 93.002,38.519 93.514,50.418L49.832,50.418C50.344,38.519 59.944,29 71.673,29M47.811,51.418C47.811,51.967 48.262,52.418 48.811,52.418L94.535,52.418C95.084,52.418 95.535,51.967 95.535,51.418C95.535,51.137 95.524,50.859 95.514,50.58C95.513,50.53 95.513,50.479 95.511,50.429C95.001,37.422 84.507,27 71.673,27C58.839,27 48.345,37.422 47.835,50.429C47.833,50.479 47.833,50.53 47.832,50.58C47.822,50.859 47.811,51.137 47.811,51.418" style="fill-rule:nonzero;"/>
                    </g>
                    <g>
                        <path d="M76.901,66.444C76.901,67.026 76.738,67.497 76.412,67.858C76.086,68.219 75.632,68.399 75.05,68.399C74.492,68.399 74.05,68.219 73.724,67.858C73.398,67.497 73.235,67.026 73.235,66.444C73.235,65.886 73.398,65.431 73.724,65.082C74.05,64.733 74.492,64.559 75.05,64.559C75.632,64.559 76.086,64.733 76.412,65.082C76.738,65.431 76.901,65.886 76.901,66.444M72.677,64.176C72.025,64.781 71.699,65.537 71.699,66.444C71.699,67.375 72.025,68.143 72.677,68.748C73.328,69.354 74.119,69.656 75.05,69.656C76.004,69.656 76.797,69.354 77.424,68.748C78.052,68.143 78.367,67.375 78.367,66.444C78.367,65.537 78.052,64.781 77.424,64.176C76.797,63.571 76.004,63.268 75.05,63.268C74.119,63.268 73.328,63.571 72.677,64.176" style="fill-rule:nonzero;"/>
                    </g>
                    <g>
                        <path d="M65.032,57.246C65.358,56.886 65.811,56.705 66.394,56.705C66.952,56.705 67.4,56.886 67.737,57.246C68.075,57.608 68.243,58.066 68.243,58.625C68.243,59.207 68.075,59.672 67.737,60.021C67.4,60.37 66.952,60.545 66.394,60.545C65.811,60.545 65.358,60.37 65.032,60.021C64.706,59.672 64.544,59.207 64.544,58.625C64.544,58.066 64.706,57.608 65.032,57.246M66.394,61.802C67.347,61.802 68.133,61.505 68.75,60.912C69.366,60.318 69.675,59.556 69.675,58.625C69.675,57.694 69.366,56.926 68.75,56.321C68.133,55.716 67.347,55.413 66.394,55.413C65.462,55.413 64.666,55.716 64.002,56.321C63.339,56.926 63.008,57.694 63.008,58.625C63.008,59.556 63.339,60.318 64.002,60.912C64.666,61.505 65.462,61.802 66.394,61.802" style="fill-rule:nonzero;"/>
                    </g>
                    <g>
                        <path d="M64.822,69.133C64.822,69.342 64.903,69.494 65.067,69.586C65.185,69.681 65.334,69.731 65.486,69.727C65.765,69.727 65.974,69.621 66.114,69.412L75.854,56.566C75.969,56.429 76.031,56.256 76.028,56.077C76.033,55.905 75.963,55.739 75.836,55.623C75.707,55.507 75.538,55.445 75.365,55.449C75.132,55.449 74.921,55.553 74.736,55.762L65.031,68.61C64.9,68.753 64.825,68.939 64.822,69.133" style="fill-rule:nonzero;"/>
                    </g>
                </g>
            </g>
        </g>
    </g>
</svg>
